X: 18772
T: If I Had A Wife
R: slide
M: 12/8
K: Gmajor
"G"B2"g"A AB"g"d e2"g"d d2"g"B|AG"g"A B2"g"A "C"G2D "D"D2"d"A|
"G"B2"g"A AB"g"d e2"g"d d2"g"B|1 "D"AG"d"A B2"d"A "G"(G2"g"G) G2"D"A:|2 "D"AG"d"A B2"d"A "G"(G2"g"G) G2e||
|:"G"d2"g"g gf"g"g ag"g"e dB"g"d|"C"e2a aba g2a "D"bg"d"e|
"G"d2"g"g gf"g"g ag"g"e dB"g"d|1 "C"ef"c"g "D"ab"d"a "G"(g2"g"g) g2e:|2 "C"efg "D"ab"d"a "G"(g2"g"g) g2A||

